X: 53
T: Skye Boat Song
M: 3/4
L: 1/4
R: waltz
K: G
C: Sir Harold Boulton
"G"D>E D | G2 G/G/ | "D"A>B A | d3 | "Em" B>A B | "C"E2 E | "D7" (D3 | D3) |
w: Speed, bon-nie boat, like a bird on the wing, On-ward, the sail-ors cry -
"G"D>E D | G2 G/G/ | "D"A>B A | d3 | "Em" B>A B | "C"E2 E | "D" (D3 | D3) |
w: Car-ry the lad that was born to be King, O-ver the sea to Skye; -
   "Em" B>G B| B3 | "Am" A>E A | A3 | "Em" G>E G | "C" G2 G | "Em" (E3 | E3) |
w: Loud the winds howl, loud the waves roar, thun-der-clouds rend the air; -
   "Em" B>G B| B3 | "Am" A>E A | A3 | "Em" G>E G | "C" (u.G2 u.G) | "Em"E3 | "D" D3 |
w: Baff-led our foes stand on the shore, fol-low they will not dare -
W:Though the waves leap, soft shall ye sleep
W:Ocean's a royal bed
W:Rocked in the deep, Flora will keep
W:Watch by your weary head
W:
W:Many's the lad fought on that day
W:Well the claymore could wield
W:When the night came, silently lay
W:Dead on Culloden's field
W:
W:Burned are our homes, exile and death
W:Scatter the loyal men
W:Yet, e'er the sword cool in the sheath,
W:Charlie will come again.
W:   (NOTE: Ellen's chords)

